X: 2572
T: Ballykinleer
R: reel
M: 4/4
K: Amajor
|:c2|BAFD EAcE|Acaz fecA|BF~F2 BFcB|AE{D}EA cEAc|
BF{A}F{E}F E3F|Aca{b}a fece|fdaf eac'a|{c'}babc' a2:|
|:e2|abc'a bc'af|eaec ABce|fc c/c/c fcec|B2 Ac BAFE|
Ac c/c/c Bd{a}d(d|c)zee df{a}f{e}f|e2Bd cEB{c}B|A2 Bc A2:|

